X: 33972
T: Redican's Mother
R: slip jig
M: 9/8
K: Dmajor
FAA FAB AFD|FAA FAB d2A|FAA FAB AFD|f2f edc B2A|
FAA FAB AFD|FAA FAB d2A|FAA FAB AFD|f2f edc Bde||
|:f3 efe d2e|f3 def g2e|f2f efe dBA|BAF DFA B2A:|

